packages/core/src/svgs/tokens/mono/PNG.svg

<svg width="24" height="24" viewBox="0 0 24 24" fill="none" xmlns="http://www.w3.org/2000/svg">
<path d="M8.45307 6.7063L7.93543 8.29453L11.2295 10.6945L8.6119 12.5886L5.52954 10.3357L6.70602 6.7063H8.45307ZM9.06484 6.7063L11.706 8.62983V10.3239L8.61777 8.07688L9.06484 6.7063ZM8.62366 13.3004L8.61777 13.324L11.706 15.571V11.0593L8.62366 13.2945V13.3004ZM9.18837 14.4592L11.7001 16.2887H11.706V18.4711L8.61777 16.2239L9.19424 14.4592H9.18837Z" fill="white"/>
<path d="M15.5469 6.7063H17.2939L18.4704 10.3475L15.3822 12.5886L12.7822 10.6887L16.0645 8.30629L15.5469 6.7063ZM12.2939 8.62983L14.9409 6.7063L15.3822 8.07688L12.2939 10.3181V8.62394V8.62983ZM15.3763 13.3004L12.2997 11.0651H12.2939V15.571L15.3822 13.324L15.3763 13.3004ZM12.2939 16.2945L14.8115 14.4651L15.3822 16.2298L12.2939 18.4711V16.2887V16.2945Z" fill="white"/>
<path fill-rule="evenodd" clip-rule="evenodd" d="M12 21.4117C14.4961 21.4117 16.89 20.4202 18.6551 18.6551C20.4202 16.89 21.4117 14.4961 21.4117 12C21.4117 9.50377 20.4202 7.10991 18.6551 5.34487C16.89 3.57982 14.4961 2.58823 12 2.58823C9.50377 2.58823 7.10991 3.57982 5.34487 5.34487C3.57982 7.10991 2.58823 9.50377 2.58823 12C2.58823 14.4961 3.57982 16.89 5.34487 18.6551C7.10991 20.4202 9.50377 21.4117 12 21.4117ZM12 22C14.6522 22 17.1957 20.9464 19.071 19.071C20.9464 17.1957 22 14.6522 22 12C22 9.34785 20.9464 6.80429 19.071 4.92892C17.1957 3.05357 14.6522 2 12 2C9.34785 2 6.80429 3.05357 4.92892 4.92892C3.05357 6.80429 2 9.34785 2 12C2 14.6522 3.05357 17.1957 4.92892 19.071C6.80429 20.9464 9.34785 22 12 22Z" fill="white"/>
</svg>

<svg xmlns="http://www.w3.org/2000/svg" width="24" height="24" fill="none" viewBox="0 0 24 24">
    <path fill="#fff" d="m8.453 6.706-.518 1.589 3.295 2.4-2.618 1.894-3.082-2.253 1.176-3.63zm.612 0 2.641 1.924v1.694L8.618 8.077zM8.624 13.3l-.006.024 3.088 2.247v-4.512l-3.082 2.236zm.564 1.16 2.512 1.829h.006v2.182l-3.088-2.247.576-1.765zm6.359-7.754h1.747l1.176 3.641-3.088 2.242-2.6-1.9 3.282-2.383zM12.294 8.63l2.647-1.924.441 1.37-3.088 2.242V8.624zm3.082 4.67L12.3 11.065h-.006v4.506l3.088-2.247zm-3.082 2.994 2.518-1.829.57 1.765-3.088 2.241V16.29z"/>
    <path fill="#fff" fill-rule="evenodd" d="M12 21.412a9.412 9.412 0 1 0 0-18.824 9.412 9.412 0 0 0 0 18.824M12 22a10 10 0 1 0 0-20 10 10 0 0 0 0 20" clip-rule="evenodd"/>
</svg>
